/* XPM */
static char *bg_en_dual[]={
"22 22 8 1",
". c None",
"c c #000080",
"e c #00c000",
"d c #a0a0a0",
"f c #c00000",
"a c #c0c000",
"b c #ff0000",
"# c #ffffff",
"......................",
"......................",
"......................",
"......................",
"##a#######bb#ccccd##bb",
"#aaa######bb#ccd##bbb#",
"##a#######bb#c##bbb##c",
"##########bb##bbb##ccc",
"##########bb#bb##dcccc",
"eeeeeeeeeebb##########",
"eeeeeeeeeebbbbbbbbbbbb",
"eeeeeeeeeebbbbbbbbbbbb",
"eeeeeeeeeebb##########",
"ffffffffffbb#bb##dcccc",
"ffffffffffbb##bbb##ccc",
"ffffffffffbb#c##bbb##c",
"ffffffffffbb#ccd##bbb#",
"ffffffffffbb#ccccd##bb",
"......................",
"......................",
"......................",
"......................"};
