/* XPM */
static char *computer_terms[]={
"22 22 9 1",
". c None",
"b c #000000",
"c c #000080",
"d c #0000ff",
"g c #00ff00",
"e c #00ffff",
"# c #585858",
"a c #a0a0a0",
"f c #c3c3c3",
".....############.....",
"....#aaaaaaaaaaa#b....",
"...#abbbbbbbbbca#b....",
"...#abddddddddca#b....",
"...#abdeedddddca#b....",
"...#abdeddddddca#b....",
"...#abddddddddca#b....",
"...#abddddddddca#b....",
"...#abddddddddca#b....",
"...#abddddddddca#b....",
"...#acccccccccca#b....",
"...#aaaaaaaaaaaa#b....",
"...##############b###.",
"...bbbbbbbbbbbbbbb##b.",
"..b#################b.",
".bfggfffffffffffff##b.",
".bfggfffffffbbbbbb##b.",
".bff#bf#bf#bfaaaaaaffb",
"bff#bf#bf#bf#bf#baffab",
"bf#bf#bf#bf#bf#bafaab.",
".bbbbbbbbbbbbbffafab..",
"..............bbbbb..."};
