/* XPM */
static char *dialect[]={
"22 22 4 1",
". c None",
"# c #008080",
"b c #c0c000",
"a c #c0c0ff",
"......................",
"......................",
"..........######......",
"........##a#aa#a#.....",
".......#aaa#aa#aa#....",
"..###.#aaaaaaa#aa##...",
".#aaa.#aa##aaa#aa#a#..",
"#aaaa#aa####aaaaa#aa#.",
"#aaaaaaaa##aaaaaa#aa#.",
"#aaaaaaaaaaaaaaaaaaa#.",
".#aaa#aaaaaa#aaaaaaa#.",
"..###.#a####aaaaaaa#..",
".......#aaaaaaaaaa#...",
"........#aaaaaaaa#....",
".........#aaaaaa#.....",
".........#######......",
".......##bbbbbbb##....",
".....##bbbbbbbbbbb##..",
"....#bbbbbbbbbbbbbbb#.",
"...#bbbbbbbbbbbbbbbbb#",
"..#bbbbbbbbbbbbbbbbbbb",
"..#bbbbbbbbbbbbbbbbbbb"};
