/* XPM */
static char *polytechnical[]={
"22 22 8 1",
". c None",
"f c #0080ff",
"e c #585858",
"d c #808080",
"b c #c3c3c3",
"# c #c67340",
"c c #dcdcdc",
"a c #ffffff",
"...###################",
".....#################",
"......###...........##",
"aaaaaaab###baaa.....##",
"aaaaaaaac###caa.....##",
"adadadaaab###bc.....##",
"aadadaaaaacb###.....##",
"aaaaaaaaaaaac###....##",
"adadadadaaeaabc###..##",
"aadadadaaaeaaaa.###.##",
"aaaaaaaaaaeaaaa..#####",
"aaafffaaaaeaaaa....###",
"aafaaafaaaeaaaa.....##",
"aafaaafaaaeaaaa......#",
"aafaaafaaaeaaaa.......",
"aaafffaaaaeaaaa.......",
"aaaaaaaaaaeaaaa.......",
"aeeeeeeeeeeeeaa.......",
"aaaaaaaaaaeaaaa.......",
"aaaaaaaaaaeaaaa.......",
"aaaaaaaaaaeaaaa.......",
"aaaaaaaaaaaaaaa......."};
