/* XPM */
static char *thesaurus[]={
"22 22 6 1",
". c None",
"a c #000000",
"# c #800000",
"b c #808080",
"c c #c00000",
"d c #dcdcdc",
"...........#aa........",
"..........#bccaa......",
".........#bcccccaa....",
"........#bccccccccaa..",
".......#bccaacccccccaa",
"......#bccccaaacccccca",
".....#bcccccccaaaccca.",
"....#bccccaaccccaccaa.",
"...#bccccccaaaccccaba.",
"..#bcccccccccacccabda.",
".#bcccccccccccccabddaa",
"#aaccccccccccccabddbca",
"#abaacccccccccabddbca.",
"#abbbaaccccccabddbca..",
"#abddbbaacccabddbca...",
"##bbdddbbacabddbca....",
".accbbdddbabddbca.....",
"..aaccbbddbddbca......",
"....aaccbbddbca.......",
"......aaccbbca........",
"........aacca.........",
"..........aa.........."};
